!!!!SEGMENT: pl-wtm--r-1404--002_stefani-jozef--danse.krn
!!!cenid: 18xx:2420
!!!COM: Stefani, Józef
!!!COM-rismid: pe30024097
!!!CDT: 1800/04/16-1876/03/19
!!!CNT: Polish
!!!OTL: Danse
!!!PDT: 1842
!!!AGN: Secular
!!!SMS-siglum: PL-Wtm
!!!SMS-shelfmark: R 1404
!!!SMS-shelfwork: 002 W
!!!SMS-variant:
!!!SMS-altvar:
!!!NIFC-rismid: 1001117931
!!!URL-scan: http://repozytorium.nifc.pl/skany/pl-wtm-nut--r1404
!!!ONB-nifc: UWAGA: w zbiorze: 1. Dance Cracovienne (skan 0003), 2. Danse (bez tytułu, skan 0004),
!!!key:
**kern	**kern	**dynam
*part1	*part1	*part1
*staff2	*staff1	*
*Iforte	*Iforte	*
*I"Piano-forte	*I"Piano-forte	*
*clefF4	*clefG2	*
*k[]	*k[]	*
*D:	*D:	*
*M3/8	*M3/8	*
*>[A,B,B,C,D,D,E,F]	*>[A,B,B,C,D,D,E,F]	*
=1	=1	=1
*>A	*>A	*
*all\right	*all\right	*
*2\right	*2\right	*
*tremolo	*	*
.	(<32qqc/LLL	p
.	32qqB/JJJ	.
8AAL 8AAA/	4.A/)	.
8AA 8AAA/	.	.
8AAJ 8AAA/	.	.
=2	=2	=2
*rep	*	*
.	(<32qqc/LLL	.
.	32qqB/JJJ	.
8AAL 8AAA/	4.A/)	.
8AA 8AAA/	.	.
8AAJ 8AAA/	.	.
*Xrep	*	*
=3	=3	=3
*rep	*Xtuplet	*
8AAL 8AAA/	24A'/LL	.
.	24B'/	.
.	24c'/JJ	.
8AA 8AAA/	16e'/LL	.
.	16f'/JJ	.
!	!LO:TUP:b:problem=klamra łukowa, kropka zamiast numeru	!
8AAJ 8AAA/	24d/LL	.
.	24c/	.
.	24B/JJ	.
*Xrep	*	*
=4	=4	=4
*rep	*	*
8AAL 8AAA/	16A/LL	.
.	16c/JJ	.
8AA 8AAA/	8e/L	.
8AAJ 8AAA/	8a/J	.
*Xrep	*	*
=5	=5	=5
.	(<32qqf/LLL	.
.	32qqe/JJJ	.
8FL 8D 8AA\	4.d/)	.
8F 8D 8AA\	.	.
8FJ 8D 8AA\	.	.
=6	=6	=6
*rep	*	*
.	(<32qqf/LLL	.
.	32qqe/JJJ	.
8FL 8D 8AA\	4.d/)	.
8F 8D 8AA\	.	.
8FJ 8D 8AA\	.	.
*Xrep	*	*
!!LO:LB:g=original
=7	=7	=7
8G#XL 8E 8D 8AA\	24e'/LL	.
.	24g#X'/	.
.	24a'/JJ	.
8G#X 8E 8D 8AA\	16b'\LL	.
.	16dd'\JJ	.
*	*tuplet	*
!	!LO:TUP:a:problem=klamra łukowa	!
8G#J 8E 8D 8AA\	24dd\LL	.
.	24cc\	.
.	24b\JJ	.
=8	=8	=8
!	!LO:TUP:a:problem=klamra łukowa	!
8AL 8E 8C 8AA\	24a'\LL	.
.	24g#X'\	.
.	24a'\JJ	.
8A 8E 8C 8AA\	8cc'\L	.
8AJ 8E 8C 8AA\	8a'\J	.
=9	=9	=9
.	(<32qqcc#X/LLL	.
.	32qqb/JJJ	.
8GnL 8E 8AA\	4.a^</)	.
8G 8E 8AA\	.	.
8GJ 8E 8AA\	.	.
=10	=10	=10
*rep	*	*
.	(<32qqcc#X/LLL	.
.	32qqb/JJJ	.
8GnL 8E 8AA\	4.a^</)	.
8G 8E 8AA\	.	.
8GJ 8E 8AA\	.	.
*Xrep	*	*
*Xtremolo	*	*
=11	=11	=11
*	*Xtuplet	*
8GL 8E 8AA\	24a'\LL	.
.	24cc#X'\	.
.	24dd'\JJ	.
8G 8E 8AA\	16ee'\LL	.
.	16gg'\JJ	.
!	!LO:TUP:a:problem=klamra łukowa, kropka zamiast numeru	!
8GJ 8C#X 8AA\	24gg\LL	.
.	24ff\	.
.	24ee\JJ	.
!!LO:LB:g=original
=12	=12	=12
*tremolo	*	*
8F\L 8D\ 8AA\	(>24dd\LL	.
.	24cc#X\)	.
.	24dd'\JJ	.
8F\ 8D\ 8AA\	8ff'\L	.
8F\J 8D\ 8AA\	8aa'\J	.
=13	=13	=13
.	(<32qqgg#X/LLL	.
.	32qqff#X/JJJ	.
8G#XL 8E 8D 8AA\	4.ee\)	.
8G# 8E 8D 8AA\	.	.
8G#J 8E 8D 8AA\	.	.
=14	=14	=14
*rep	*rep	*
.	(<32qqgg#X/LLL	.
.	32qqff#X/JJJ	.
8G#XL 8E 8D 8AA\	4.ee\)	.
8G# 8E 8D 8AA\	.	.
8G#J 8E 8D 8AA\	.	.
*Xrep	*Xrep	*
=15	=15	=15
*rep	*	*
8G#XL 8E 8D 8AA\	24ee'\LL	.
.	24b'\	.
.	24cc#X'\JJ	.
8G# 8E 8D 8AA\	16dd'\LL	.
.	16ee'\JJ	.
!	!LO:TUP:a:problem=klamra łukowa	!
8G#J 8E 8D 8AA\	24dd\LL	.
.	24cc#\	.
.	24b\JJ	.
*Xrep	*	*
=16	=16	=16
8AL 8E 8C#X 8AA\	(<24a/LL	.
.	24g#X/)	.
.	24a'/JJ	.
8A 8E 8C# 8AA\	8cc#X'/L	.
8AJ 8E 8C# 8AA\	8a'/J	.
*Xtremolo	*	*
=17!|:	=17!|:	=17!|:
*>B	*>B	*
*^	*	*
4.AA/	16AA\LL	24cc#X\LL	<
.	.	24b\	.
.	16G\	.	.
.	.	24a\JJ	.
!	!	!LO:N:vis=16	!
.	16E\	8cc#\L	.
.	16G\	.	.
!	!	!LO:N:vis=16	!
.	16E\	8ee\J	.
.	16G\JJ	.	.
!!LO:LB:g=original
=18	=18	=18	=18
4.AA/	16AA\LL	24ffn\LL	.
.	.	24ee\	.
.	16Fn\	.	.
.	.	24dd\JJ	.
.	16D\	4dd^<\	.
.	16F\	.	.
.	16D\	.	.
.	16F\JJ	.	.
*v	*v	*	*
=19:|!	=19:|!	=19:|!
*>C	*>C	*
*	*tuplet	*
!	!LO:TUP:a:problem=klamra łukowa	!
16ELL 16AA\	24cc#X\LL	.
.	24b\	.
16G\	.	.
.	24a\JJ	.
16E 16AA\	16cc#'\LL	.
16G\	16ee'\JJ	.
!	!LO:TUP:a:problem=klamra łukowa	!
16D 16AA\	24ffn\LL	.
.	24ee\	.
16Fn\JJ	.	.
.	24dd\JJ	.
=20	=20	=20
16C#XLL 16AA\	16ee'\LL	.
16E\	16gg#X'\	.
16C# 16AA\	16bb'\	.
16E\	16aa'\JJ	.
!	!LO:TUP:a:problem=klamra łukowa	!
16D 16AA\	24ffn\LL	.
.	24ee\	.
16F\JJ	.	.
.	24dd\JJ	.
=21	=21	=21
8E 8C#X 8AA/	16ee\LL	.
.	16gg\JJ	.
.	8qbb/	.
8r	16aa\LL	.
.	16gg#X\JJ	.
.	8qbb/	.
8r	16aa\LL	.
.	16gg#\JJ	.
=22	=22	=22
.	8qbb/	.
4.r	16aa\LL	.
.	16gg#X\	.
.	16ee\	.
.	16gg#\JJ	.
.	8qbb/	.
.	16aa\LL	.
.	16ff#X\JJ	.
=23!|:	=23!|:	=23!|:
*>D	*>D	*
*k[f#c#]	*k[f#c#]	*
*	*Xtuplet	*
!	!	!LO:DY:rj:t=ffo
8AL 8F# 8D\	24dd'\LL	ff
.	24ff#'\	.
.	24gg#X'\JJ	.
8A 8F# 8D\	16aa'\LL	.
.	16bb'\JJ	.
*	*tuplet	*
!	!LO:TUP:a	!
8AJ 8E 8AA\	24ggn'\LL	.
.	24ee'\	.
.	24cc#'\JJ	.
=24	=24	=24
*tremolo	*	*
8AL 8F# 8D\	16dd'\LL	.
.	16ff#'\JJ	.
8A 8F# 8D\	8aa'\L	.
8AJ 8F# 8D\	8ddd'\J	.
*Xtremolo	*	*
!!LO:LB:g=original
=25	=25	=25
*	*Xtuplet	*
8AL 8F# 8D\	24dd'\LL	.
.	24ff#'\	.
.	24gg#X'\JJ	.
8A 8F# 8D\	16aa'\LL	.
.	16ddd'\JJ	.
*	*tuplet	*
!	!LO:TUP:a	!
8AJ 8E 8AA\	24ggn\LL	.
.	24ee\	.
.	24cc#\JJ	.
=26	=26	=26
8AL 8F# 8D\	16dd'\LL	.
.	16ff#'\JJ	.
8B 8G 8D\	8bT\L	.
8AJ 8F# 8D\	8a\J	.
=27:|!	=27:|!	=27:|!
*>E	*>E	*
*tremolo	*	*
8EL 8AA/	4.r	p
8E 8AA/	.	.
8EJ 8AA/	.	.
=28	=28	=28
8EL 8AA/	4.r	.
8E 8AA/	.	.
8EJ 8AA/	.	.
=29	=29	=29
.	8qf#/	p
8EL 8C# 8AA/	16e/LL	.
.	16d#X/JJ	.
8E 8C# 8AA/	8e/	.
8EJ 8C# 8AA/	16dn/LL	.
.	16c#/JJ	.
=30	=30	=30
.	16qc#/	.
8EL 8C# 8AA/	16B/LL	.
.	16A/JJ	.
8E 8C# 8AA/	8c#/L	.
8EJ 8C# 8AA/	8c#/J	.
!!LO:PB:g=original
=31	=31	=31
.	8qf#/	p
8EL 8C# 8AA\	16e/LL	.
.	16d#X/JJ	.
8E 8C# 8AA\	8e/	.
.	8qe/	.
8EJ 8C# 8AA\	16dn/LL	.
.	16c#/JJ	.
=32	=32	=32
*rep	*	*
.	8qc#/	.
8EL 8C# 8AA\	16B/LL	.
.	16A/JJ	.
8E 8C# 8AA\	8c#/L	.
8EJ 8C# 8AA\	8c#/J	.
*Xrep	*	*
=33	=33	=33
.	8qff#/	.
8AL 8E 8C# 8AA\	16ee\LL	.
.	16dd#X\JJ	.
8A 8E 8C# 8AA\	8ee\	.
.	8qee/	.
8AJ 8E 8C# 8AA\	16ddn\LL	.
.	16cc#\JJ	.
=34	=34	=34
*rep	*	*
.	8qcc#/	.
8AL 8E 8C# 8AA\	16b\LL	.
.	16a\JJ	.
8A 8E 8C# 8AA\	8cc#\L	.
8AJ 8E 8C# 8AA\	8cc#\J	.
*Xrep	*	*
=35	=35	=35
*rep	*	*
.	8qff#/	.
8AL 8E 8C# 8AA\	16ee\LL	.
.	16dd#X\JJ	.
8A 8E 8C# 8AA\	8ee\	.
.	8qee/	.
8AJ 8E 8C# 8AA\	16ddn\LL	.
.	16cc#\JJ	.
*Xrep	*	*
!!LO:LB:g=original
=36	=36	=36
.	8qcc#/	.
8AL 8E 8C# 8AA\	16b\LL	.
.	16a\JJ	.
8A 8E 8C# 8AA\	8cc#\L	.
8AJ 8E 8C# 8AA\	8cc#\J	.
=37	=37	=37
*rep	*	*
.	8qff#/	.
8AL 8E 8C# 8AA\	16ee\LL	.
.	16dd#X\JJ	.
8A 8E 8C# 8AA\	8ee\	.
.	8qee/	.
8AJ 8E 8C# 8AA\	16ddn\LL	.
.	16cc#\JJ	.
*Xrep	*	*
=38	=38	=38
*rep	*	*
.	8qcc#/	.
8AL 8E 8C# 8AA\	16b/LL	.
.	16a/JJ	.
8A 8E 8C# 8AA\	8cc#/L	.
8AJ 8E 8C# 8AA\	8a/J	.
*Xrep	*	*
!LO:TX:a:t=P:problem=w źródle znak segno na całej kresce taktowej	!LO:TX:a:t=P:problem=w źródle znak segno na całej kresce taktowej	!
!LO:TX:a:t=[segno]	!LO:TX:a:t=[segno]	!
=39||	=39||	=39||
*>F	*>F	*
*	*Xtuplet	*
!	!	!LO:DY:t=ffo
16F#LL 16D\	24dd\LL	ff
.	24ff#\	.
16A\	.	.
.	24gg#X\JJ	.
16F# 16D\	16aa\LL	.
16A\	16bb\JJ	.
16E 16AA\	24ggn\LL	.
.	24ee\	.
16A\JJ	.	.
.	24cc#\JJ	.
=40	=40	=40
16F#LL 16D\	16dd\LL	.
16A\	16ff#\JJ	.
16F# 16D\	8aa\L	.
16A\	.	.
16F# 16D\	8ddd\J	.
16A\JJ	.	.
*Xtremolo	*	*
!!LO:LB:g=original
=41	=41	=41
16F#LL 16D\	24dd\LL	.
.	24ff#\	.
16A\	.	.
.	24gg#X\JJ	.
16F# 16D\	16aa\LL	.
16A\JJ	16bb\JJ	.
16ELL 16AA\	24ggn\LL	.
.	24ee\	.
16A\JJ	.	.
.	24cc#\JJ	.
=42	=42	=42
16F#LL 16D\	16dd\LL	.
16A\JJ	16ff#\JJ	.
8BL 8G 8D\	8bT\L	.
8AJ 8F# 8D\	8a\J	.
=43	=43	=43
8AL 8F# 8D\	24dd\LL	.
.	24ff#\	.
.	24gg#X\JJ	.
8A 8F# 8D\	16aa\LL	.
.	16bb\JJ	.
8AJ 8E 8AA\	24ggn\LL	.
.	24ee\	.
.	24cc#\JJ	.
=44	=44	=44
*rep	*rep	*
16F#LL 16D\	16dd\LL	.
16A\	16ff#\JJ	.
16F# 16D\	8aa\L	.
16A\	.	.
16F# 16D\	8ddd\J	.
16A\JJ	.	.
*Xrep	*Xrep	*
=45	=45	=45
*rep	*rep	*
16F#LL 16D\	24dd\LL	.
.	24ff#\	.
16A\	.	.
.	24gg#X\JJ	.
16F# 16D\	16aa\LL	.
16A\JJ	16bb\JJ	.
16ELL 16AA\	24ggn\LL	.
.	24ee\	.
16A\JJ	.	.
.	24cc#\JJ	.
*Xrep	*Xrep	*
=46	=46	=46
*rep	*rep	*
16F#LL 16D\	16dd\LL	.
16A\JJ	16ff#\JJ	.
8BL 8G 8D\	8bT\L	.
8AJ 8F# 8D\	8a\J	.
*Xrep	*Xrep	*
!!LO:LB:g=original
=47	=47	=47
*tremolo	*	*
16F#LL 16D\	16dd\LL	.
16A\	16ff#\JJ	.
16F# 16D\	8aa\L	.
16A\	.	.
16F# 16D\	8dddJ 8ff# 8dd\	.
16A\JJ	.	.
=48	=48	=48
*rep	*rep	*
16F#LL 16D\	16dd\LL	.
16A\	16ff#\JJ	.
16F# 16D\	8aa\L	.
16A\	.	.
16F# 16D\	8dddJ 8ff# 8dd\	.
16A\JJ	.	.
*Xrep	*Xrep	*
=49	=49	=49
*rep	*rep	*
16F#LL 16D\	16dd\LL	.
16A\	16ff#\JJ	.
16F# 16D\	8aa\L	.
16A\	.	.
16F# 16D\	8dddJ 8ff# 8dd\	.
16A\JJ	.	.
*Xrep	*Xrep	*
=50	=50	=50
*rep	*rep	*
16F#LL 16D\	16dd\LL	.
16A\	16ff#\JJ	.
16F# 16D\	8aa\L	.
16A\	.	.
16F# 16D\	8dddJ 8ff# 8dd\	.
16A\JJ	.	.
*Xrep	*Xrep	*
=51	=51	=51
*	*tremolo	*
16AALL 16DD/	16fff#LL 16ddd\	.
16D/	16aa\	.
16AA 16DD/	16fff# 16ddd\	.
16D/	16aa\	.
16AA 16DD/	16fff# 16ddd\	.
16D/JJ	16aa\JJ	.
=52	=52	=52
*rep	*rep	*
16AALL 16DD/	16fff#LL 16ddd\	.
16D/	16aa\	.
16AA 16DD/	16fff# 16ddd\	.
16D/	16aa\	.
16AA 16DD/	16fff# 16ddd\	.
16D/JJ	16aa\JJ	.
*Xrep	*Xrep	*
=53	=53	=53
8D 8AA 8DD/	8fff# 8ddd\	.
8r	8r	.
16r	16r	.
16D 16AA 16DD\	16d 16A< 16F#</	.
=54	=54	=54
4.D 4.AA 4.DD\	4.d 4.A 4.F#;>/	.
==	==	==
*-	*-	*-
!!!system-decoration: {(s1,s2)}
!!!RDF**dynam: < = "cresc", 'fontstyle="normal"
!!!RDF**kern: > = above
!!!RDF**kern: < = below
!!!EED: Antoni Szymański
!!!EST: 2021-06-25
!!!AIN: 1 forte
!!!ENC: Marcin Jachim
!!!END: 2021-06-15
